icons/SVG/zahnrad_icon.svg

<?xml version="1.0" encoding="UTF-8"?>
<svg width="300px" height="260px" viewBox="0 0 300 260" version="1.1" xmlns="http://www.w3.org/2000/svg" xmlns:xlink="http://www.w3.org/1999/xlink">
    <!-- Generator: Sketch 42 (36781) - http://www.bohemiancoding.com/sketch -->
    <title>zahnrad_icon</title>
    <desc>Created with Sketch.</desc>
    <defs></defs>
    <g id="Page-1" stroke="none" stroke-width="1" fill="none" fill-rule="evenodd">
        <g id="zahnrad_icon" fill="#1A1918">
            <g id="Zahnrad_Icon">
                <path d="M149.991354,161.772 C132.418755,161.816637 118.035786,147.506211 117.996812,129.937639 C117.958493,112.595835 132.341463,98.2560852 149.872467,98.1589925 C167.43393,98.0615739 181.875852,112.365484 181.940699,129.920697 C182.004563,147.404882 167.638624,161.727363 149.991354,161.772 M213.612642,122.989318 C212.000961,118.877213 209.554782,117.214581 205.096703,117.205459 C203.480109,117.202526 201.862205,117.239343 200.246921,117.188516 C198.342773,117.128241 196.8919,116.257338 196.073777,114.520095 C195.237314,112.74408 194.414934,110.957313 193.697031,109.1321 C192.857293,106.995083 193.121594,105.02814 194.86821,103.35997 C196.130764,102.154456 197.362533,100.914732 198.561878,99.6479649 C201.702052,96.3324762 201.797031,91.8795689 198.697467,88.5692932 C196.465153,86.1856341 194.152926,83.8671378 191.758493,81.6450827 C188.322904,78.4563358 184.169738,78.4354837 180.642118,81.5209474 C179.298668,82.6961604 178.06559,84.000396 176.818428,85.2805213 C175.262424,86.87799 173.228253,87.3755088 171.155109,86.5544561 C169.44714,85.8780652 167.754563,85.1622506 166.063952,84.4438296 C163.84048,83.4992932 162.781965,81.7649825 162.733493,79.404782 C162.698777,77.7079398 162.751179,76.008817 162.71679,74.3116491 C162.621812,69.5997193 159.550087,66.534782 154.815262,66.4705965 C151.582402,66.4272632 148.347904,66.4269373 145.115044,66.4728772 C140.495502,66.5386917 137.27738,69.7271128 137.154891,74.3282657 C137.109367,76.024782 137.115262,77.7242306 137.149978,79.4210727 C137.200742,81.915183 136.003035,83.5618496 133.750415,84.5119248 C132.140699,85.1909223 130.527707,85.8640551 128.901943,86.5036291 C126.764607,87.3448822 124.862096,86.9613985 123.217336,85.3453584 C121.748122,83.9023258 120.327707,82.4029273 118.781856,81.0459098 C116.092009,78.6847318 111.646048,78.6218496 109.001397,81.0032281 C106.412096,83.3347569 103.885022,85.7532782 101.516463,88.3040802 C97.9275983,92.169218 98.1362227,96.4012231 101.891463,100.142226 C102.969956,101.216762 104.054017,102.286085 105.125306,103.367464 C106.699978,104.957439 107.131638,106.818817 106.323668,108.901749 C105.646048,110.649093 104.923231,112.381774 104.151616,114.090346 C103.217227,116.158942 101.602926,117.233479 99.2782533,117.213604 C97.3475764,117.196987 95.4113319,117.144857 93.4865502,117.25987 C89.3468122,117.507815 86.2649345,120.648341 86.1666812,124.753278 C86.0841485,128.191925 86.086441,131.634807 86.1620961,135.073128 C86.2590393,139.474556 89.3510699,142.512777 93.7757424,142.639845 C95.5705022,142.691323 97.3688646,142.629744 99.164607,142.665258 C101.298996,142.70794 103.039061,143.546586 103.973122,145.517439 C104.889825,147.452125 105.689934,149.446436 106.442227,151.450847 C106.971485,152.860321 106.883384,154.341148 105.907074,155.520922 C104.689061,156.993604 103.37607,158.411875 101.956638,159.691674 C98.0654803,163.199393 98.2387336,168.256361 101.148013,171.254506 C103.609585,173.791624 106.036441,176.381524 108.686659,178.713704 C111.986659,181.617363 116.453908,181.311424 119.618974,178.230195 C120.869738,177.012627 122.131965,175.80418 123.341463,174.546862 C124.947904,172.875759 126.86155,172.665283 128.900306,173.426712 C130.743537,174.116135 132.531092,174.95804 134.324869,175.772576 C136.238843,176.642501 137.128035,178.186211 137.14048,180.251223 C137.150961,181.993353 137.128362,183.73581 137.147686,185.478266 C137.175197,187.921223 137.975961,190.089845 139.924978,191.610747 C140.992009,192.443203 142.337096,192.922802 143.557074,193.561724 L156.492773,193.561724 C157.91679,192.682351 159.457402,191.942426 160.735022,190.886461 C162.137096,189.728516 162.649978,188.005935 162.69452,186.201248 C162.739716,184.372125 162.710895,182.540722 162.730218,180.70997 C162.754782,178.367038 163.67476,176.562677 165.92345,175.593053 C167.650087,174.848566 169.361004,174.060747 171.120393,173.40195 C173.185349,172.628792 175.087205,172.965033 176.691681,174.555008 C177.963079,175.815258 179.204672,177.10581 180.508821,178.332501 C183.636223,181.273629 187.698996,181.67601 190.967882,178.893228 C194.016026,176.298767 196.833275,173.385008 199.448777,170.352652 C201.746921,167.68814 201.454782,163.65814 199.127162,160.985484 C197.8669,159.538541 196.450087,158.22616 195.108275,156.849268 C193.103908,154.793053 192.761987,152.890296 193.913188,150.270421 C194.577052,148.759619 195.225197,147.241975 195.897904,145.734431 C196.846048,143.611098 198.592009,142.715759 200.834148,142.66591 C202.494301,142.629093 204.156092,142.677639 205.816245,142.6519 C209.713624,142.590972 212.208603,140.808441 213.552052,137.164206 C213.642118,136.919193 213.779672,136.691774 213.894956,136.456536 L213.894956,123.587514 C213.800306,123.388115 213.692882,123.19393 213.612642,122.989318" id="Fill-1"></path>
                <path d="M80.3781878,249.963707 L219.622074,249.963707 L289.24369,130.000424 L219.622074,10.0364887 L80.3781878,10.0364887 L10.7562445,130.000424 L80.3781878,249.963707 Z M222.458319,259.738143 L77.5419432,259.738143 C75.7868122,259.738143 74.1649782,258.806639 73.2875764,257.294534 L0.829388646,132.444033 C-0.0483406114,130.931927 -0.0483406114,129.06892 0.829388646,127.556815 L73.2875764,2.70566165 C74.1649782,1.19355639 75.7868122,0.262052632 77.5419432,0.262052632 L222.458319,0.262052632 C224.21345,0.262052632 225.834956,1.19355639 226.712686,2.70566165 L299.170546,127.556815 C300.048275,129.06892 300.048275,130.931927 299.170546,132.444033 L226.712686,257.294534 C225.834956,258.806639 224.21345,259.738143 222.458319,259.738143 L222.458319,259.738143 Z" id="Fill-3"></path>
            </g>
        </g>
    </g>
</svg>

<svg width="300" height="260" viewBox="0 0 300 260" xmlns="http://www.w3.org/2000/svg"><title>zahnrad_icon</title><g fill="#57B8BA" fill-rule="evenodd"><path d="M149.991 161.772c-17.572.045-31.955-14.266-31.994-31.834-.039-17.342 14.344-31.682 31.875-31.779 17.562-.097 32.004 14.206 32.069 31.762.064 17.484-14.302 31.806-31.95 31.851m63.622-38.783c-1.612-4.112-4.058-5.774-8.516-5.784-1.617-.002-3.235.034-4.85-.016-1.904-.06-3.355-.932-4.173-2.669-.837-1.776-1.66-3.563-2.377-5.388-.84-2.137-.575-4.104 1.171-5.772a103.875 103.875 0 0 0 3.694-3.712c3.14-3.316 3.235-7.768.135-11.079a139.975 139.975 0 0 0-6.939-6.924c-3.435-3.189-7.588-3.21-11.116-.124-1.343 1.175-2.576 2.48-3.824 3.76-1.556 1.597-3.59 2.095-5.663 1.273-1.708-.676-3.4-1.392-5.091-2.11-2.224-.945-3.282-2.679-3.33-5.04-.035-1.696.017-3.395-.017-5.092-.095-4.712-3.167-7.777-7.902-7.841a351.351 351.351 0 0 0-9.7.002c-4.62.066-7.838 3.254-7.96 7.855-.046 1.697-.04 3.396-.005 5.093.05 2.494-1.147 4.14-3.4 5.09-1.61.68-3.222 1.353-4.848 1.993-2.137.84-4.04.457-5.685-1.159-1.469-1.443-2.89-2.942-4.435-4.3-2.69-2.36-7.136-2.423-9.78-.042-2.59 2.332-5.117 4.75-7.486 7.301-3.588 3.865-3.38 8.097.375 11.838 1.079 1.075 2.163 2.144 3.234 3.225 1.575 1.59 2.007 3.452 1.199 5.535a103.63 103.63 0 0 1-2.172 5.188c-.935 2.069-2.55 3.143-4.874 3.124-1.93-.017-3.867-.07-5.791.046-4.14.248-7.222 3.388-7.32 7.493-.083 3.439-.08 6.882-.005 10.32.097 4.402 3.19 7.44 7.614 7.567 1.795.051 3.593-.01 5.389.025 2.134.043 3.874.882 4.808 2.852.917 1.935 1.717 3.93 2.47 5.934.528 1.41.44 2.89-.536 4.07-1.218 1.473-2.53 2.89-3.95 4.17-3.892 3.508-3.718 8.565-.809 11.564 2.462 2.537 4.888 5.127 7.539 7.459 3.3 2.903 7.767 2.597 10.932-.484 1.25-1.217 2.513-2.426 3.722-3.683 1.607-1.671 3.52-1.882 5.56-1.12 1.843.69 3.63 1.531 5.424 2.346 1.914.87 2.803 2.413 2.815 4.478.011 1.742-.012 3.485.008 5.227.027 2.443.828 4.612 2.777 6.133 1.067.832 2.412 1.312 3.632 1.95h12.936c1.424-.879 2.964-1.619 4.242-2.675 1.402-1.157 1.915-2.88 1.96-4.685.045-1.829.016-3.66.035-5.491.025-2.343.945-4.147 3.193-5.117 1.727-.744 3.438-1.532 5.197-2.191 2.065-.773 3.967-.437 5.572 1.153 1.271 1.26 2.513 2.55 3.817 3.778 3.127 2.94 7.19 3.343 10.459.56 3.048-2.594 5.865-5.508 8.48-8.54 2.299-2.665 2.007-6.695-.32-9.368-1.261-1.446-2.678-2.759-4.02-4.136-2.004-2.056-2.346-3.959-1.195-6.579.664-1.51 1.312-3.028 1.985-4.536.948-2.123 2.694-3.018 4.936-3.068 1.66-.037 3.322.012 4.982-.014 3.898-.061 6.393-1.844 7.736-5.488.09-.245.228-.472.343-.707v-12.87c-.095-.199-.202-.393-.282-.598"/><path d="M80.378 249.964h139.244L289.244 130 219.622 10.036H80.378L10.756 130l69.622 119.964zm142.08 9.774H77.542a4.917 4.917 0 0 1-4.254-2.443L.829 132.444a4.865 4.865 0 0 1 0-4.887L73.288 2.706A4.917 4.917 0 0 1 77.542.262h144.916a4.92 4.92 0 0 1 4.255 2.444l72.458 124.85a4.865 4.865 0 0 1 0 4.888l-72.458 124.85a4.917 4.917 0 0 1-4.255 2.444z"/></g></svg>
